images_files/otherVG/logo.svg

<svg width="55" height="55" viewBox="0 0 55 55" fill="none" xmlns="http://www.w3.org/2000/svg">
<circle cx="27.5" cy="27.5" r="27.5" fill="#00FF64"/>
<path d="M24.2431 29.425L25.1624 28.3161L23.5124 26.2625" stroke="black"/>
<path d="M39.3305 39.1178L44.8252 32.5756L43.872 30.954L43.3114 29.0528L42.975 26.4807L42.5825 23.6848L41.2929 20.6094L39.3305 18.6523L36.6393 17.2544L35.0694 16.7512L32.0978 16.3598L30.8643 15.6328L28.6216 14.85H26.8274L22.2298 16.8071L16.5109 17.0867L13.7635 17.8695L11.8572 19.7148L10.1752 22.0073L10.7919 23.6848L12.3058 24.9709L13.7635 26.7043L13.9878 24.9709H14.7728L16.1745 26.4807L16.5109 24.8032H17.0155L18.3051 26.4807L18.5854 24.8032H19.5946L20.6038 26.4807L20.8842 24.8032L21.8373 25.1946L25.0893 27.2635H26.491L28.2851 26.4807L28.958 27.2635L28.2851 28.4378L26.491 29.3883H22.7905L21.557 28.1023L21.2767 29.3883H20.2674L19.5946 29.6679L18.5854 28.7733V30.6744L17.6883 31.1777L16.5109 30.1153L16.1745 31.9046H15.3895L14.3803 30.6744L13.9878 31.9046L12.3058 32.5756V34.5886L14.941 36.322H20.2674L22.7905 35.8747H24.8089L26.8274 36.8812L28.958 40.0125L39.3305 39.1178Z" fill="#00FF64" stroke="black"/>
<path d="M12.925 22L14.025 20.625" stroke="black"/>
<path d="M26.125 36.4375L29.4301 36.3823L35.8162 31.9643L36.7125 29.7" stroke="black"/>
<path d="M25.2242 17.198C24.8335 17.3663 24.3869 18.0956 24.3869 18.0956C24.2752 18.4323 24.3311 19.1055 24.7777 19.8909C25.2242 20.6763 26.0058 21.013 26.2849 21.1251C26.2849 21.1251 28.4062 21.2374 28.6853 21.1251C28.9644 21.0129 29.4668 20.5641 29.6901 20.2836C29.9134 20.0031 29.8576 18.3761 29.6901 18.0956C29.5226 17.8152 29.0761 17.4224 28.6853 17.198C28.2945 16.9736 25.615 17.0297 25.2242 17.198Z" fill="#00FF64" stroke="black"/>
<path d="M25.4107 17.4533C25.059 17.5991 24.6571 18.2312 24.6571 18.2312C24.5566 18.5229 24.6069 19.1064 25.0088 19.7871C25.4107 20.4678 26.1141 20.7595 26.3653 20.8568C26.3653 20.8568 28.2744 20.954 28.5257 20.8568C28.7769 20.7595 29.229 20.3706 29.43 20.1274C29.631 19.8843 29.5807 18.4743 29.43 18.2312C29.2793 17.9881 28.8773 17.6477 28.5257 17.4533C28.174 17.2588 25.7624 17.3074 25.4107 17.4533Z" fill="#00FF64" stroke="black"/>
<path d="M29.8376 19.2722C29.8376 19.2722 37.1259 19.16 37.5154 19.4404C37.9048 19.7208 39.0176 21.6835 39.0176 21.6835L39.4626 22.4125" stroke="black"/>
</svg>

<svg xmlns="http://www.w3.org/2000/svg" width="55" height="55" fill="none" xmlns:v="https://vecta.io/nano"><circle cx="27.5" cy="27.5" r="27.5" fill="#00ff64"/><g stroke="#000"><path d="M24.243 29.425l.919-1.109-1.65-2.054"/><path d="M39.331 39.118l5.495-6.542-.953-1.622-.561-1.901-.336-2.572-.392-2.796-1.29-3.075-1.962-1.957-2.691-1.398-1.57-.503-2.972-.391-1.233-.727-2.243-.783h-1.794l-4.598 1.957-5.719.28-2.747.783-1.906 1.845-1.682 2.293.617 1.677 1.514 1.286 1.458 1.733.224-1.733h.785l1.402 1.51.336-1.677h.505l1.29 1.677.28-1.677h1.009l1.009 1.677.28-1.677.953.391 3.252 2.069h1.402l1.794-.783.673.783-.673 1.174-1.794.951h-3.7l-1.234-1.286-.28 1.286h-1.009l-.673.28-1.009-.895v1.901l-.897.503-1.177-1.062-.336 1.789h-.785l-1.009-1.23-.393 1.23-1.682.671v2.013l2.635 1.733h5.326l2.523-.447h2.018l2.018 1.007 2.131 3.131 10.373-.895z" fill="#00ff64"/><path d="M12.925 22l1.1-1.375m12.1 15.813l3.305-.055 6.386-4.418.896-2.264"/><g fill="#00ff64"><path d="M25.224 17.198c-.391.168-.837.898-.837.898-.112.337-.056 1.01.391 1.795s1.228 1.122 1.507 1.234c0 0 2.121.112 2.4 0s.781-.561 1.005-.841.168-1.907 0-2.188-.614-.673-1.005-.898-3.07-.168-3.461 0z"/><path d="M25.411 17.453c-.352.146-.754.778-.754.778-.101.292-.05.875.352 1.556s1.105.972 1.357 1.07c0 0 1.909.097 2.16 0s.703-.486.904-.729.151-1.653 0-1.896-.553-.584-.904-.778-2.763-.146-3.115 0z"/></g><path d="M29.838 19.272l7.678.168c.389.28 1.502 2.243 1.502 2.243l.445.729"/></g></svg>
